icon/svg/singularity/transparent.svg

<?xml version="1.0" encoding="UTF-8" standalone="no"?>
<!DOCTYPE svg PUBLIC "-//W3C//DTD SVG 1.1//EN" "http://www.w3.org/Graphics/SVG/1.1/DTD/svg11.dtd">
<svg width="100%" height="100%" viewBox="0 0 180 180" version="1.1" xmlns="http://www.w3.org/2000/svg" xmlns:xlink="http://www.w3.org/1999/xlink" xml:space="preserve" xmlns:serif="http://www.serif.com/" style="fill-rule:evenodd;clip-rule:evenodd;stroke-linejoin:round;stroke-miterlimit:2;">
    <g transform="matrix(1,0,0,1,-220,-1660)">
        <g transform="matrix(1,0,0,1,3,0)">
            <g id="singularity-transparent" serif:id="singularity/transparent" transform="matrix(0.9,0,0,0.9,217,1660)">
                <rect x="0" y="0" width="200" height="200" style="fill:none;"/>
                <g transform="matrix(1.11111,0,0,1.11111,0.0569444,-0.0048771)">
                    <path d="M163.48,106.31L149.18,120.61C151.15,120.55 152.6,120.93 153.52,121.77C154.57,122.72 155.09,124.35 155.09,126.68L155.09,148.92C155.09,151.25 154.57,153.03 153.52,154.27C152.47,155.52 150.75,156.37 148.35,156.83L104.24,165.31C100.2,168.51 95.23,170.24 90,170.24C87.75,170.24 85.56,169.92 83.46,169.3L37.14,178.2C32.91,179.01 29.79,178.9 27.85,177.84C25.89,176.78 24.9,174.64 24.9,171.43L24.9,140.78C24.9,137.58 25.89,135.16 27.85,133.54C29.79,131.94 32.91,130.95 37.14,130.57L40.48,130.27L16.52,106.31C12.16,101.96 9.77,96.16 9.77,90C9.77,83.84 12.16,78.05 16.52,73.7L41.71,48.51C38.58,48.03 36.22,47.14 34.65,45.83C32.74,44.24 31.78,41.86 31.78,38.69L31.78,8.49C31.78,5.33 32.74,3.22 34.65,2.16C36.53,1.12 39.56,1 43.68,1.79L86.54,10.03C87.68,9.86 88.83,9.77 90,9.77C94.16,9.77 98.15,10.87 101.65,12.93L121.17,16.68C123.96,17.21 125.95,18.16 127.17,19.52C128.39,20.87 128.99,22.79 128.99,25.3L128.99,39.21L163.48,73.7C167.83,78.05 170.23,83.84 170.23,90C170.23,96.16 167.83,101.96 163.48,106.31Z" style="fill:rgb(30,5,48);fill-rule:nonzero;"/>
                </g>
                <g transform="matrix(1.11111,0,0,1.11111,0.0569444,-0.0048771)">
                    <path d="M153.52,121.77C152.6,120.93 151.15,120.55 149.18,120.61C148.91,120.62 148.63,120.63 148.35,120.66L128.99,122.39L128.99,25.3C128.99,22.79 128.39,20.87 127.17,19.52C125.95,18.16 123.96,17.21 121.17,16.68L101.65,12.93L86.54,10.03L43.68,1.79C39.56,1 36.53,1.12 34.65,2.16C32.74,3.22 31.78,5.33 31.78,8.49L31.78,38.69C31.78,41.86 32.74,44.24 34.65,45.83C36.22,47.14 38.58,48.03 41.71,48.51C42.34,48.6 42.99,48.68 43.68,48.74L59.53,50.15L71.49,51.22L71.49,127.51L58.35,128.68L40.48,130.27L37.14,130.57C32.91,130.95 29.79,131.94 27.85,133.54C25.89,135.16 24.9,137.58 24.9,140.78L24.9,171.43C24.9,174.64 25.89,176.78 27.85,177.84C29.79,178.9 32.91,179.01 37.14,178.2L83.46,169.3L104.24,165.31L148.35,156.83C150.75,156.37 152.47,155.52 153.52,154.27C154.57,153.03 155.09,151.25 155.09,148.92L155.09,126.68C155.09,124.35 154.57,122.72 153.52,121.77ZM137.72,142.46L125.54,144.25L102.72,147.6L80.53,150.86L63.56,153.35L54.36,154.7L54.36,152.32L61.52,151.31L78.57,148.9L101.08,145.71L101.08,34.08L78.7,30.98L61.61,28.61L60.42,28.44L60.42,26.1L63.65,26.57L80.66,29.02L102.47,32.16L103.53,32.31L103.53,145.37L105.18,145.14L127.86,141.93L137.72,140.53L137.72,142.46Z" style="fill:rgb(68,10,61);fill-rule:nonzero;"/>
                </g>
                <g transform="matrix(1.11111,0,0,1.11111,0.0569444,-0.0048771)">
                    <path d="M98.54,108.67L98.54,65.62C98.54,64.32 97.48,63.26 96.18,63.26L74.14,63.26C72.84,63.26 71.78,64.32 71.78,65.62L71.78,73.22C71.78,74.52 72.84,75.58 74.14,75.58L82.85,75.58L82.85,108.67L72.47,108.67C71.17,108.67 70.11,109.73 70.11,111.03L70.11,118.46C70.11,119.76 71.17,120.82 72.47,120.82L107.53,120.82C108.83,120.82 109.89,119.76 109.89,118.46L109.89,111.03C109.89,109.73 108.83,108.67 107.53,108.67L98.54,108.67Z" style="fill:white;fill-rule:nonzero;"/>
                </g>
                <g transform="matrix(1.11111,0,0,1.11111,170.843,92.6911)">
                    <path d="M0,13.15L-57.169,70.319C-58.925,72.076 -61.26,73.043 -63.743,73.043C-66.228,73.043 -68.563,72.076 -70.318,70.319L-127.487,13.15C-129.244,11.394 -130.211,9.059 -130.211,6.575C-130.211,4.091 -129.244,1.756 -127.487,0.001L-70.318,-57.168C-68.563,-58.925 -66.228,-59.892 -63.743,-59.892C-61.26,-59.892 -58.925,-58.925 -57.169,-57.168L0,0.001C1.757,1.756 2.724,4.091 2.724,6.575C2.724,9.059 1.757,11.394 0,13.15M9.734,-9.734L-47.435,-66.903C-51.791,-71.259 -57.583,-73.658 -63.743,-73.658C-69.904,-73.658 -75.696,-71.259 -80.053,-66.903L-137.222,-9.734C-141.578,-5.377 -143.977,0.415 -143.977,6.575C-143.977,12.736 -141.578,18.528 -137.222,22.884L-80.053,80.053C-75.696,84.41 -69.904,86.808 -63.743,86.808C-57.583,86.808 -51.791,84.41 -47.435,80.053L9.734,22.884C14.091,18.528 16.489,12.736 16.489,6.575C16.489,0.415 14.091,-5.377 9.734,-9.734" style="fill:url(#_Linear1);fill-rule:nonzero;"/>
                </g>
            </g>
        </g>
    </g>
    <defs>
        <linearGradient id="_Linear1" x1="0" y1="0" x2="1" y2="0" gradientUnits="userSpaceOnUse" gradientTransform="matrix(109.643,179.438,-179.438,109.643,-128.839,-72.8627)"><stop offset="0" style="stop-color:rgb(250,103,165);stop-opacity:1"/><stop offset="1" style="stop-color:rgb(142,70,165);stop-opacity:1"/></linearGradient>
    </defs>
</svg>

<?xml version="1.0" encoding="UTF-8"?>
<svg id="Layer_1" data-name="Layer 1" xmlns="http://www.w3.org/2000/svg" viewBox="0 0 180 180">
  <g>
    <path d="M163.48,106.31l-14.3,14.3c1.97-.06,3.42,.32,4.34,1.16,1.05,.95,1.57,2.58,1.57,4.91v22.24c0,2.33-.52,4.11-1.57,5.35-1.05,1.25-2.77,2.1-5.17,2.56l-44.11,8.48c-4.04,3.2-9.01,4.93-14.24,4.93-2.25,0-4.44-.32-6.54-.94l-46.32,8.9c-4.23,.81-7.35,.7-9.29-.36-1.96-1.06-2.95-3.2-2.95-6.41v-30.65c0-3.2,.99-5.62,2.95-7.24,1.94-1.6,5.06-2.59,9.29-2.97l3.34-.3-23.96-23.96c-4.36-4.35-6.75-10.15-6.75-16.31s2.39-11.95,6.75-16.3l25.19-25.19c-3.13-.48-5.49-1.37-7.06-2.68-1.91-1.59-2.87-3.97-2.87-7.14V8.49c0-3.16,.96-5.27,2.87-6.33,1.88-1.04,4.91-1.16,9.03-.37l42.86,8.24c1.14-.17,2.29-.26,3.46-.26,4.16,0,8.15,1.1,11.65,3.16l19.52,3.75c2.79,.53,4.78,1.48,6,2.84,1.22,1.35,1.82,3.27,1.82,5.78v13.91l34.49,34.49c4.35,4.35,6.75,10.14,6.75,16.3s-2.4,11.96-6.75,16.31Z" style="fill: #1e0530;"/>
    <path d="M153.52,121.77c-.92-.84-2.37-1.22-4.34-1.16-.27,.01-.55,.02-.83,.05l-19.36,1.73V25.3c0-2.51-.6-4.43-1.82-5.78-1.22-1.36-3.21-2.31-6-2.84l-19.52-3.75-15.11-2.9L43.68,1.79c-4.12-.79-7.15-.67-9.03,.37-1.91,1.06-2.87,3.17-2.87,6.33v30.2c0,3.17,.96,5.55,2.87,7.14,1.57,1.31,3.93,2.2,7.06,2.68,.63,.09,1.28,.17,1.97,.23l15.85,1.41,11.96,1.07V127.51l-13.14,1.17-17.87,1.59-3.34,.3c-4.23,.38-7.35,1.37-9.29,2.97-1.96,1.62-2.95,4.04-2.95,7.24v30.65c0,3.21,.99,5.35,2.95,6.41,1.94,1.06,5.06,1.17,9.29,.36l46.32-8.9,20.78-3.99,44.11-8.48c2.4-.46,4.12-1.31,5.17-2.56,1.05-1.24,1.57-3.02,1.57-5.35v-22.24c0-2.33-.52-3.96-1.57-4.91Zm-15.8,20.69l-12.18,1.79-22.82,3.35-22.19,3.26-16.97,2.49-9.2,1.35v-2.38l7.16-1.01,17.05-2.41,22.51-3.19V34.08l-22.38-3.1-17.09-2.37-1.19-.17v-2.34l3.23,.47,17.01,2.45,21.81,3.14,1.06,.15v113.06l1.65-.23,22.68-3.21,9.86-1.4v1.93Z" style="fill: #440a3d;"/>
  </g>
  <path d="M163.48,73.7L106.31,16.53c-1.41-1.41-2.98-2.62-4.66-3.6-3.5-2.06-7.49-3.16-11.65-3.16-1.17,0-2.32,.09-3.46,.26-4.85,.72-9.32,2.97-12.85,6.5l-10.04,10.04L16.52,73.7c-4.36,4.35-6.75,10.14-6.75,16.3s2.39,11.96,6.75,16.31l47.04,47.04,10.13,10.13c2.77,2.77,6.12,4.75,9.77,5.82,2.1,.62,4.29,.94,6.54,.94,5.23,0,10.2-1.73,14.24-4.93,.72-.56,1.41-1.17,2.07-1.83l57.17-57.17c4.35-4.35,6.75-10.15,6.75-16.31s-2.4-11.95-6.75-16.3Zm-9.74,22.88l-51.02,51.02-6.15,6.15c-1.75,1.75-4.09,2.72-6.57,2.72s-4.82-.97-6.58-2.72l-2.89-2.89-1.96-1.96-20.22-20.22L26.25,96.58c-1.75-1.76-2.72-4.09-2.72-6.58s.97-4.81,2.72-6.57L59.53,50.15l19.17-19.17,1.96-1.96,2.76-2.76c1.76-1.76,4.09-2.72,6.58-2.72s4.82,.96,6.57,2.72l6.96,6.96,25.46,25.46,24.75,24.75c1.76,1.76,2.73,4.09,2.73,6.57s-.97,4.82-2.73,6.58Z" style="fill: #ce46a5;"/>
  <path d="M98.54,108.67v-43.05c0-1.3-1.06-2.36-2.36-2.36h-22.04c-1.3,0-2.36,1.06-2.36,2.36v7.6c0,1.3,1.06,2.36,2.36,2.36h8.71v33.09h-10.38c-1.3,0-2.36,1.06-2.36,2.36v7.43c0,1.3,1.06,2.36,2.36,2.36h35.06c1.3,0,2.36-1.06,2.36-2.36v-7.43c0-1.3-1.06-2.36-2.36-2.36h-8.99Z" style="fill: #fff;"/>
</svg>
